!!!COM: Mozart, Wolfgang Amadeus
!!!OPR: Quartet in A Major
!!!OTL:
!!!OMV: 3
!!!SCT: K 169
!!!SCA: Chronologisch-thematisches Verzeichnis sämtlicher Tonwerke Wolfgang Amade Mozarts (L. von Köchel; 1862, 2/1905, 3/1937, 1947)
!!!YOR: Breitkopf & Härtel Edition
!!!EED: Frances Bennion
!!!ENC: Frances Bennion
!!!CDT: 1756/1/27/-1791/12/5/
!!!OCY: Österreich
!!!YEC: Copyright (c) 1994, 2000 Center for Computer Assisted Research in the Humanities
!!!YEM: Rights to all derivative editions reserved.
!!!YEM: Refer to licensing agreement for further details.
!!!YEN: United States of America
**kern	**kern	**kern	**kern
*k[f#c#g#]	*k[f#c#g#]	*k[f#c#g#]	*k[f#c#g#]
*A:	*A:	*A:	*A:
*clefG	*clefG	*clefF	*clefC
*M3/4	*M3/4	*M3/4	*M3/4
*tb12	*tb12	*tb12	*tb12
=1	=1	=1	=1
2a	2.r	4c#	4AA
.	.	4e	4C#
4b	.	4f#	4D
=2	=2	=2	=2
4r	2.r	4B	4E
8g#	.	2r	2r
8a	.	.	.
4b	.	.	.
=3	=3	=3	=3
2cc#	2A	4e	4A
.	.	4f#	4F#
4dd	4B	4f#	4D
=4	=4	=4	=4
4r	4r	4B	4E
8b	8G#	2r	2r
8cc#	8A	.	.
4dd	4B	.	.
=5	=5	=5	=5
2ee	2c#	2r	4r
.	.	.	4A
4ff#	4d	4f#	4A#
=6	=6	=6	=6
4r	4r	4d	4B
8dd	8B	4r	4r
8b	8G#	.	.
4ee	4c#	4e	4G#
=7	=7	=7	=7
4r	4r	4c#	4A
8cc#	8e	4r	4r
8a	8c#	.	.
4dd	4f#	4B	4D
=8	=8	=8	=8
2cc#	2A	2.E	4E
.	.	.	4E
4b	4G#	.	4EE
=9	=9	=9	=9
4.ee	4.e	4.B	4.G#
8ff#	8f#	8A	8F#
4gg#	4g#	4G#	4E
=10	=10	=10	=10
4cc#	4c#	4e	4AA
4cc#	4c#	4e	4AA
4cc#	4c#	4e	4AA
=11	=11	=11	=11
4.ff#	4.f#	4.c#	4.A
8gg#	8g#	8B	8G#
4aa	4a	4A	4F#
=12	=12	=12	=12
2.dd#	2.d#	2.f#	2.BB
=13	=13	=13	=13
12bb	2.r	2.r	2.r
12ccc#	.	.	.
12bb	.	.	.
12bb	.	.	.
12ccc#	.	.	.
12bb	.	.	.
12bb	.	.	.
12ccc#	.	.	.
12bb	.	.	.
=14	=14	=14	=14
12ee	2.r	2.r	2.r
12ff#	.	.	.
12ee	.	.	.
12ee	.	.	.
12ff#	.	.	.
12ee	.	.	.
12ee	.	.	.
12ff#	.	.	.
12ee	.	.	.
=15	=15	=15	=15
12b	12b	12b	12B
12cc#	12cc#	12cc#	12c#
12b	12b	12b	12B
12b	12b	12b	12B
12cc#	12cc#	12cc#	12c#
12b	12b	12b	12B
12b	12b	12b	12B
12cc#	12cc#	12cc#	12c#
12b	12b	12b	12B
=16	=16	=16	=16
4e	4e	4e	4E
2r	2r	2r	2r
=17	=17	=17	=17
12b	2.r	2.G#	4E
12cc#	.	.	.
12b	.	.	.
12dd	.	.	4E
12ee	.	.	.
12dd	.	.	.
12b	.	.	4E
12cc#	.	.	.
12b	.	.	.
=18	=18	=18	=18
4cc#	12cc#	4A	4E
.	12dd	.	.
.	12cc#	.	.
2r	12ee	2r	4E
.	12ff#	.	.
.	12ee	.	.
.	12cc#	.	4E
.	12dd	.	.
.	12cc#	.	.
=19	=19	=19	=19
12ff#	4a	2.d#	4E
12gg#	.	.	.
12ff#	.	.	.
12aa	2r	.	4E
12bb	.	.	.
12aa	.	.	.
12ff#	.	.	4E
12gg#	.	.	.
12ff#	.	.	.
=20	=20	=20	=20
4gg#	12gg#	4e	4E
.	12aa	.	.
.	12gg#	.	.
2r	12bb	2r	4E
.	12ccc#	.	.
.	12bb	.	.
.	12gg#	.	4E
.	12aa	.	.
.	12gg#	.	.
=21	=21	=21	=21
12b	4ee	2.G#	4E
12cc#	.	.	.
12b	.	.	.
12dd	2r	.	4E
12ee	.	.	.
12dd	.	.	.
12b	.	.	4E
12cc#	.	.	.
12b	.	.	.
=22	=22	=22	=22
12cc#	2.r	4A	4AA
12dd	.	.	.
12cc#	.	.	.
12ee	.	12e	2r
12ff#	.	12f#	.
12ee	.	12e	.
12dd	.	12d	.
12ee	.	12e	.
12dd	.	12d	.
=23	=23	=23	=23
12cc#	2.r	12c#	2.r
12dd	.	12d	.
12cc#	.	12c#	.
12b	.	12B	.
12cc#	.	12c#	.
12b	.	12B	.
12a	.	12A	.
12b	.	12B	.
12a	.	12A	.
=24	=24	=24	=24
4e	2.r	4E	2.r
2r	.	2r	.
=25	=25	=25	=25
2a	2.r	4c#	4AA
.	.	4e	4C#
4b	.	4f#	4D
=26	=26	=26	=26
4r	2.r	4B	4E
8g#	.	2r	2r
8a	.	.	.
4b	.	.	.
=27	=27	=27	=27
2cc#	2A	4e	4A
.	.	4f#	4F#
4dd	4B	4f#	4D
=28	=28	=28	=28
4r	4r	4e	4E
8b	8G#	2r	2r
8cc#	8A	.	.
4dd	4B	.	.
=29	=29	=29	=29
4.ee	4.c#	2.A	2.AA
8cc#	8e	.	.
4a	4c#	.	.
=30	=30	=30	=30
4f#	4A	4r	2.D
4f#	4A	4d	.
4f#	4A	4d	.
=31	=31	=31	=31
4.b	2f#	4r	2.BB
.	.	4d	.
8dd	.	.	.
4ff#	4d	4B	.
=32	=32	=32	=32
2.g#	2.B	2.G#	2.E
=33	=33	=33	=33
12ee	2.r	2.r	2.r
12ff#	.	.	.
12ee	.	.	.
12ee	.	.	.
12ff#	.	.	.
12ee	.	.	.
12ee	.	.	.
12ff#	.	.	.
12ee	.	.	.
=34	=34	=34	=34
12a	2.r	2.r	2.r
12b	.	.	.
12a	.	.	.
12a	.	.	.
12b	.	.	.
12a	.	.	.
12a	.	.	.
12b	.	.	.
12a	.	.	.
=35	=35	=35	=35
12e	12e	12e	12E
12f#	12f#	12f#	12F#
12e	12e	12e	12E
12e	12e	12e	12E
12f#	12f#	12f#	12F#
12e	12e	12e	12E
12e	12e	12e	12E
12f#	12f#	12f#	12F#
12e	12e	12e	12E
=36	=36	=36	=36
4A	4A	4A	4AA
2r	2r	2r	2r
=37	=37	=37	=37
8a#	8A#	2.r	2.r
8r	8r	.	.
8b	8B	.	.
8r	8r	.	.
8cc#	8c#	.	.
8r	8r	.	.
=38	=38	=38	=38
8a#	8A#	2.r	2.r
8r	8r	.	.
8b	8B	.	.
8r	8r	.	.
8cc#	8c#	.	.
8r	8r	.	.
=39	=39	=39	=39
2a	2A	4r	4r
.	.	4f#	4F#
4b	4B	4d#	4D#
=40	=40	=40	=40
2.g#	2.G#	4e	4E
.	.	4B	4BB
.	.	4E	4EE
=41	=41	=41	=41
8a#	8A#	2.r	2.r
8r	8r	.	.
8b	8B	.	.
8r	8r	.	.
8cc#	8c#	.	.
8r	8r	.	.
=42	=42	=42	=42
8a#	8A#	2.r	2.r
8r	8r	.	.
8b	8B	.	.
8r	8r	.	.
8cc#	8c#	.	.
8r	8r	.	.
=43	=43	=43	=43
2dd#	2d#	4r	4r
.	.	4f#	4F#
4cc#	4c#	4F#	4FF#
=44	=44	=44	=44
2b	2B	4B	4BB
.	.	4f#	4F#
4r	4r	4b	4B
=45	=45	=45	=45
8dd#	8d#	2.r	2.r
8r	8r	.	.
8ee	8e	.	.
8r	8r	.	.
8ff#	8f#	.	.
8r	8r	.	.
=46	=46	=46	=46
4dd#	4d#	8b	8B
.	.	8r	8r
2r	2r	8f#	8F#
.	.	8r	8r
.	.	8B	8BB
.	.	8r	8r
=47	=47	=47	=47
8dd#	8d#	2.r	2.r
8r	8r	.	.
8ee	8e	.	.
8r	8r	.	.
8ff#	8f#	.	.
8r	8r	.	.
=48	=48	=48	=48
4dd#	4d#	8b	8B
.	.	8r	8r
2r	2r	8f#	8F#
.	.	8r	8r
.	.	8B	8BB
.	.	8r	8r
=49	=49	=49	=49
8a#	8A#	2.r	2.r
8r	8r	.	.
8b	8B	.	.
8r	8r	.	.
8cc#	8c#	.	.
8r	8r	.	.
=50	=50	=50	=50
8a#	8A#	2.r	2.r
8r	8r	.	.
8b	8B	.	.
8r	8r	.	.
8cc#	8c#	.	.
8r	8r	.	.
=51	=51	=51	=51
2a	2A	4r	4r
.	.	4f#	4F#
4b	4B	4d#	4D#
=52	=52	=52	=52
2g#	2G#	4e	4E
.	.	4B	4BB
4r	4r	4E	4EE
==	==	==	==
*-	*-	*-	*-
!!!RWG1: This file contains only pitch and duration data.
!!!RWG2: Transposing instruments are not transposed.
!!!RWG3: Spines may have incompatible meters.
!!!RWG4: Durations of rests and tied notes may be interpreted.
!!!RWG: Key is interpreted using the Humdrum key tool.
!!!AFT: stage1
!!!END: 1997/04/15
!!format changes:
!!content changes:
!!public access: complete
!!!KEY: 905945054
!!!EMD: Converted from MuseData to Humdrum Dec 16, 2000, by Andreas Kornstaedt using muse2kern.
